X: 48
T:Silver Spear
M:4/4
L:1/8
R:Reel
K:D
 |AG |:FA~A2 BAFA|dfed BcdA|FA ~A2 BAFA|dfed B3 A|
|FA ~A2 BAFA|dfed Bdef|~g3 e~f3 e|1dfed ~B2 A2:|2dfed Bcde|
|:f2af bfaf|gfed Bcde|f2af bfaf|gfed B2 A2|
|f2af bfaf|gfed Bcde|~g3 e~f3 e|dfed B2 A2:|
